src/assets/healthPage/clearbraces.svg

<svg height="88" viewBox="0 0 88 88" width="88" xmlns="http://www.w3.org/2000/svg" xmlns:xlink="http://www.w3.org/1999/xlink"><mask id="a" fill="#fff"><path d="m0 0h88v88h-88z" fill="#fff" fill-rule="evenodd"/></mask><g fill="none" fill-rule="evenodd" mask="url(#a)"><g transform="translate(8 23.5)"><g fill-rule="nonzero"><g fill="#a7958a" opacity=".6"><path d="m1.1064764 18.7296215c.12313763.3067479.191748.6326471.20273791.9630051 0 .3801335-.15205343.7602671-.22808015 1.1150585-.16789676.6759688-.29483878 1.3614557-.38013358 2.0527213-.68750812 6.6031008 2.31164797 13.0493389 7.8054095 16.776562.67187754.4570652 1.46828064.6959862 2.28080152.6842404h.4054758c2.0153402-.3363241 3.4872986-2.0876323 3.4718867-4.1307849v-5.0684477c-.0343336-.7865673.2455759-1.5544948.7780152-2.1344734.5324394-.5799786 1.2736868-.9243827 2.0603155-.9572797 1.6290256.2342041 2.8073663 1.6768456 2.7116195 3.3198332v4.8910521c.020537 2.1481824 1.6842199 3.922043 3.8266781 4.0801004.8558604.0424119 1.7018897-.1980386 2.4075126-.6842404 6.2598688-4.0329922 9.2560271-11.6049161 7.4506182-18.8292833 0-.3801336-.1773957-.734925-.2280802-1.1150585.0112058-.3280057.0709878-.6525367.1773957-.9630051l.2027379-.7095827c.5599614-2.401987.857365-4.8576909.8869784-7.323907.0809092-2.18001196-.3170092-4.35126269-1.165743-6.36090186-1.2516559-2.55228431-3.7994573-4.21516232-6.6396665-4.33352281-3.2685525-.04136932-6.5028217.66964964-9.452655 2.07806357l-.7602672-.27876462-.4054758-.15205344c-.8362939-.27876462-1.69793-.58287148-2.5342239-.83629387-.9555334-.2849069-1.9291957-.50503924-2.9143574-.65889821-.5285212-.07993675-1.0620473-.12228009-1.59656105-.12671119-.35479134 0-1.77395671 0-2.12874805 0-.63169788.05395058-1.25363035.19026455-1.84998342.40547582-.94385152.30722397-1.80889111.81759733-2.53422386 1.49519208-.74560524.7255141-1.34747277 1.58532485-1.77395671 2.53422386-.87292879 2.00233179-1.27186617 4.17914226-1.16574297 6.36090187.00578639 2.4760961.30350102 4.9428745.88697835 7.3492492zm4.66297191-12.1896168c.15593836-.34538455.38005535-.65570038.6588982-.91232059.20880828-.20379002.4596368-.35947669.73492492-.45616029.16793656-.02614769.33890822-.02614769.50684478 0h1.64724551 1.01368958c.7456412.11837926 1.4822923.28772433 2.2047747.50684477.7856094.22808015 1.5458766.50684477 2.3568282.7856094h.3801336c.7520483.29167473 1.4735575.65667351 2.1540903 1.08971626 1.956874 1.41427958 4.3637601 2.06332751 6.7663777 1.82464118.9448922-.20071298 1.6935046-.92113587 1.9303198-1.85763232.2368152-.93649644-.0793576-1.92617538-.8152613-2.5519172.4723455-.03664479.9468199-.03664479 1.4191654 0 1.0668622-.04970072 2.0618252.53732746 2.5342238 1.49519208.5160559 1.33880953.7239379 2.77666039.6082138 4.20681161-.0279935 2.0826702-.2829215 4.1560843-.7602672 6.1835062l-.1267112.532187c-.3353402.9764118-.4479076 2.0154954-.3294491 3.0410687 0 .532187.2027379 1.0390318.3041069 1.5458765.1196702.441742.2127586.8902589.2787646 1.3431387.4134734 4.027608-1.0547004 8.0206665-3.9787315 10.8211359v-2.863673c.093584-4.3706797-3.2438661-8.0529996-7.6026716-8.388281h-.4561603c-4.3171257.2312098-7.67704956 3.8375281-7.60267156 8.1602009v2.9650419c-2.82524276-2.8039291-4.23172687-6.734633-3.82667803-10.6944247.05995211-.4519937.1445523-.9003747.25342238-1.3431387.13654247-.5092321.24650737-1.0252213.32944911-1.5458765.12019686-1.0255664.00758767-2.0650359-.32944911-3.0410687v-.532187c-.50203694-2.0229342-.75731662-4.0992089-.76026716-6.1835062-.13090359-1.39736733.04199806-2.80651576.50684478-4.1307849z"/><path d="m38.0664766 18.7296215c.1231376.3067479.191748.6326471.2027379.9630051 0 .3801335-.1520535.7602671-.2280802 1.1150585-.1678967.6759688-.2948387 1.3614557-.3801335 2.0527213-.6875082 6.6031008 2.3116479 13.0493389 7.8054095 16.776562.6718775.4570652 1.4682806.6959862 2.2808014.6842404h.4054758c2.0153402-.3363241 3.4872987-2.0876323 3.4718867-4.1307849v-5.0684477c-.0343335-.7865673.2455759-1.5544948.7780153-2.1344734s1.2736868-.9243827 2.0603155-.9572797c1.6290255.2342041 2.8073663 1.6768456 2.7116195 3.3198332v4.8910521c.0205369 2.1481824 1.6842198 3.922043 3.826678 4.0801004.8558605.0424119 1.7018898-.1980386 2.4075127-.6842404 6.2598687-4.0329922 9.2560271-11.6049161 7.4506182-18.8292833 0-.3801336-.1773957-.734925-.2280802-1.1150585.0112057-.3280057.0709878-.6525367.1773957-.9630051l.2027379-.7095827c.5599614-2.401987.857365-4.8576909.8869784-7.323907.0809092-2.18001196-.3170093-4.35126269-1.165743-6.36090186-1.2516559-2.55228431-3.7994573-4.21516232-6.6396665-4.33352281-3.2685525-.04136932-6.5028217.66964964-9.4526551 2.07806357l-.7602671-.27876462-.4054758-.15205344c-.8362939-.27876462-1.69793-.58287148-2.5342239-.83629387-.9555335-.2849069-1.9291957-.50503924-2.9143574-.65889821-.5285213-.07993675-1.0620473-.12228009-1.5965611-.12671119-.3547913 0-1.7739567 0-2.128748 0-.6316979.05395058-1.2536304.19026455-1.8499834.40547582-.9438516.30722397-1.8088912.81759733-2.5342239 1.49519208-.7456053.7255141-1.3474728 1.58532485-1.7739567 2.53422386-.8729288 2.00233179-1.2718662 4.17914226-1.165743 6.36090187.0057864 2.4760961.303501 4.9428745.8869784 7.3492492zm4.6629719-12.1896168c.1559383-.34538455.3800553-.65570038.6588982-.91232059.2088083-.20379002.4596368-.35947669.7349249-.45616029.1679366-.02614769.3389082-.02614769.5068448 0h1.6472455 1.0136895c.7456413.11837926 1.4822924.28772433 2.2047748.50684477.7856094.22808015 1.5458766.50684477 2.3568282.7856094h.3801336c.7520483.29167473 1.4735575.65667351 2.1540903 1.08971626 1.956874 1.41427958 4.36376 2.06332751 6.7663777 1.82464118.9448922-.20071298 1.6935046-.92113587 1.9303198-1.85763232.2368152-.93649644-.0793577-1.92617538-.8152613-2.5519172.4723454-.03664479.9468199-.03664479 1.4191653 0 1.0668622-.04970072 2.0618252.53732746 2.5342239 1.49519208.5160558 1.33880953.7239379 2.77666039.6082137 4.20681161-.0279934 2.0826702-.2829214 4.1560843-.7602671 6.1835062l-.1267112.532187c-.3353402.9764118-.4479076 2.0154954-.3294491 3.0410687 0 .532187.2027379 1.0390318.3041068 1.5458765.1196702.441742.2127587.8902589.2787647 1.3431387.4134733 4.027608-1.0547004 8.0206665-3.9787315 10.8211359v-2.863673c.0935839-4.3706797-3.2438661-8.0529996-7.6026716-8.388281h-.4561603c-4.3171257.2312098-7.6770496 3.8375281-7.6026716 8.1602009v2.9650419c-2.8252428-2.8039291-4.2317269-6.734633-3.826678-10.6944247.0599521-.4519937.1445523-.9003747.2534224-1.3431387.1365424-.5092321.2465073-1.0252213.3294491-1.5458765.1201968-1.0255664.0075876-2.0650359-.3294491-3.0410687v-.532187c-.502037-2.0229342-.7573167-4.0992089-.7602672-6.1835062-.1309036-1.39736733.0419981-2.80651576.5068448-4.1307849z"/></g><g fill="#4f2c18"><path d="m50.3657497 12.4450192c0 .6749864.5461853 1.2211763 1.2211762 1.2211763h4.3170412v.5104157c0 .6749863.5461944 1.2211762 1.2211762 1.2211762.6749909 0 1.2211762-.5461899 1.2211762-1.2211762v-1.8937776h2.1084413v6.8559954h-2.1084413v-.1621902c0-.6749816-.5461853-1.2211716-1.2211762-1.2211716h-4.3170412v-.8240571c0-.6749863-.5461944-1.2211762-1.2211762-1.2211762-.6749909 0-1.2211762.5461899-1.2211762 1.2211762v2.2074189h-2.1084412v-6.8559954h2.1084412z"/><path d="m14.3657497 12.4450192c0 .6749864.5461853 1.2211763 1.2211762 1.2211763h4.3170412v.5104157c0 .6749863.5461944 1.2211762 1.2211762 1.2211762.6749909 0 1.2211762-.5461899 1.2211762-1.2211762v-1.8937776h2.1084413v6.8559954h-2.1084413v-.1621902c0-.6749816-.5461853-1.2211716-1.2211762-1.2211716h-4.3170412v-.8240571c0-.6749863-.5461944-1.2211762-1.2211762-1.2211762-.6749909 0-1.2211762.5461899-1.2211762 1.2211762v2.2074189h-2.1084412v-6.8559954h2.1084412z"/></g></g><path d="m23.759115 15.5h24.240885" fill="none" opacity=".7" stroke="#4f2c18" stroke-linecap="round" stroke-width="2"/></g></g></svg>

<?xml version="1.0" encoding="UTF-8"?>
<svg width="88px" height="88px" viewBox="0 0 88 88" version="1.1" xmlns="http://www.w3.org/2000/svg" xmlns:xlink="http://www.w3.org/1999/xlink">
    <title>clearbraces</title>
    <defs>
        <rect id="path-1" x="0" y="0" width="88" height="88"></rect>
    </defs>
    <g id="Design" stroke="none" stroke-width="1" fill="none" fill-rule="evenodd">
        <g id="Icons-for-tabs" transform="translate(-781.000000, -127.000000)">
            <g id="Group-7" transform="translate(-3.000000, 0.000000)">
                <g id="Group-3" transform="translate(292.000000, 127.000000)">
                    <g id="clearbraces" transform="translate(492.000000, 0.000000)">
                        <mask id="mask-2" fill="white">
                            <use xlink:href="#path-1"></use>
                        </mask>
                        <g id="Rectangle" style="mix-blend-mode: multiply;"></g>
                        <g id="Group-5" mask="url(#mask-2)">
                            <g transform="translate(8.000000, 23.500000)">
                                <g id="Group-2" opacity="0.600000024" stroke="none" stroke-width="1" fill="none" fill-rule="evenodd">
                                    <path d="M1.1064764,18.7296215 C1.22961403,19.0363694 1.2982244,19.3622686 1.30921431,19.6926266 C1.30921431,20.0727601 1.15716088,20.4528937 1.08113416,20.8076851 C0.913237399,21.4836539 0.786295378,22.1691408 0.70100058,22.8604064 C0.0134924611,29.4635072 3.01264855,35.9097453 8.50641008,39.6369684 C9.17828762,40.0940336 9.97469072,40.3329546 10.7872116,40.3212088 L11.1926874,40.3212088 C13.2080276,39.9848847 14.679986,38.2335765 14.6645741,36.1904239 L14.6645741,31.1219762 C14.6302405,30.3354089 14.91015,29.5674814 15.4425893,28.9875028 C15.9750287,28.4075242 16.7162761,28.0631201 17.5029048,28.0302231 C19.1319304,28.2644272 20.3102711,29.7070687 20.2145243,31.3500563 L20.2145243,36.2411084 C20.2350613,38.3892908 21.8987442,40.1631514 24.0412024,40.3212088 C24.8970628,40.3636207 25.7430921,40.1231702 26.448715,39.6369684 C32.7085838,35.6039762 35.7047421,28.0320523 33.8993332,20.8076851 C33.8993332,20.4275515 33.7219375,20.0727601 33.671253,19.6926266 C33.6824588,19.3646209 33.7422408,19.0400899 33.8486487,18.7296215 L34.0513866,18.0200388 C34.611348,15.6180518 34.9087516,13.1623479 34.938365,10.6961318 C35.0192742,8.51611984 34.6213558,6.34486911 33.772622,4.33522994 C32.5209661,1.78294563 29.9731647,0.12006762 27.1329555,0.00170713297 C23.864403,-0.0396621923 20.6301338,0.671356769 17.6803005,2.0797707 L16.9200333,1.80100608 L16.5145575,1.64895264 C15.6782636,1.37018802 14.8166275,1.06608116 13.9803336,0.812658769 C13.0248002,0.527751866 12.0511379,0.307619529 11.0659762,0.153760565 C10.537455,0.0738238108 10.0039289,0.0314804707 9.46941515,0.0270493716 C9.11462381,0.0270493716 7.69545844,0.0270493716 7.3406671,0.0270493716 C6.70896922,0.0809999487 6.08703675,0.217313916 5.49068368,0.43252519 C4.54683216,0.739749158 3.68179257,1.25012252 2.95645982,1.92771727 C2.21085458,2.65323137 1.60898705,3.51304212 1.18250311,4.46194113 C0.309574321,6.46427292 -0.089363056,8.64108339 0.0167601364,10.822843 C0.0225465334,13.2989391 0.320261162,15.7657175 0.903738489,18.1720922 L1.1064764,18.7296215 Z M5.76944831,6.5400047 C5.92538667,6.19462015 6.14950366,5.88430432 6.42834651,5.62768411 C6.63715479,5.42389409 6.88798331,5.26820742 7.16327143,5.17152382 C7.33120799,5.14537613 7.50217965,5.14537613 7.67011621,5.17152382 C7.99956531,5.17152382 9.06393933,5.17152382 9.31736172,5.17152382 L10.3310513,5.17152382 C11.0766925,5.28990308 11.8133436,5.45924815 12.535826,5.67836859 C13.3214354,5.90644874 14.0817026,6.18521336 14.8926542,6.46397799 L15.2727878,6.46397799 C16.0248361,6.75565272 16.7463453,7.1206515 17.4268781,7.55369425 C19.3837521,8.96797383 21.7906382,9.61702176 24.1932558,9.37833543 C25.138148,9.17762245 25.8867604,8.45719956 26.1235756,7.52070311 C26.3603908,6.58420667 26.044218,5.59452773 25.3083143,4.96878591 C25.7806598,4.93214112 26.2551342,4.93214112 26.7274797,4.96878591 C27.7943419,4.91908519 28.7893049,5.50611337 29.2617035,6.46397799 C29.7777594,7.80278752 29.9856414,9.24063838 29.8699173,10.6707896 C29.8419238,12.7534598 29.5869958,14.8268739 29.1096501,16.8542958 L28.9829389,17.3864828 C28.6475987,18.3628946 28.5350313,19.4019782 28.6534898,20.4275515 C28.6534898,20.9597385 28.8562277,21.4665833 28.9575967,21.973428 C29.0772669,22.41517 29.1703553,22.8636869 29.2363613,23.3165667 C29.6498347,27.3441747 28.1816609,31.3372332 25.2576298,34.1377026 L25.2576298,31.2740296 C25.3512138,26.9033499 22.0137637,23.22103 17.6549582,22.8857486 L17.1987979,22.8857486 C12.8816722,23.1169584 9.52174834,26.7232767 9.59612634,31.0459495 L9.59612634,34.0109914 C6.77088358,31.2070623 5.36439947,27.2763584 5.76944831,23.3165667 C5.82940042,22.864573 5.91400061,22.416192 6.02287069,21.973428 C6.15941316,21.4641959 6.26937806,20.9482067 6.3523198,20.4275515 C6.47251666,19.4019851 6.35990747,18.3625156 6.02287069,17.3864828 L6.02287069,16.8542958 C5.52083375,14.8313616 5.26555407,12.7550869 5.26260353,10.6707896 C5.13169994,9.27342227 5.30460159,7.86427384 5.76944831,6.5400047 L5.76944831,6.5400047 Z" id="Shape" fill="#A7958A" fill-rule="nonzero"></path>
                                    <path d="M38.0664766,18.7296215 C38.1896142,19.0363694 38.2582246,19.3622686 38.2692145,19.6926266 C38.2692145,20.0727601 38.117161,20.4528937 38.0411343,20.8076851 C37.8732376,21.4836539 37.7462956,22.1691408 37.6610008,22.8604064 C36.9734926,29.4635072 39.9726487,35.9097453 45.4664103,39.6369684 C46.1382878,40.0940336 46.9346909,40.3329546 47.7472117,40.3212088 L48.1526875,40.3212088 C50.1680277,39.9848847 51.6399862,38.2335765 51.6245742,36.1904239 L51.6245742,31.1219762 C51.5902407,30.3354089 51.8701501,29.5674814 52.4025895,28.9875028 C52.9350289,28.4075242 53.6762763,28.0631201 54.462905,28.0302231 C56.0919305,28.2644272 57.2702713,29.7070687 57.1745245,31.3500563 L57.1745245,36.2411084 C57.1950614,38.3892908 58.8587443,40.1631514 61.0012025,40.3212088 C61.857063,40.3636207 62.7030923,40.1231702 63.4087152,39.6369684 C69.6685839,35.6039762 72.6647423,28.0320523 70.8593334,20.8076851 C70.8593334,20.4275515 70.6819377,20.0727601 70.6312532,19.6926266 C70.6424589,19.3646209 70.702241,19.0400899 70.8086489,18.7296215 L71.0113868,18.0200388 C71.5713482,15.6180518 71.8687518,13.1623479 71.8983652,10.6961318 C71.9792744,8.51611984 71.5813559,6.34486911 70.7326222,4.33522994 C69.4809663,1.78294563 66.9331649,0.12006762 64.0929557,0.00170713297 C60.8244032,-0.0396621923 57.590134,0.671356769 54.6403006,2.0797707 L53.8800335,1.80100608 L53.4745577,1.64895264 C52.6382638,1.37018802 51.7766277,1.06608116 50.9403338,0.812658769 C49.9848003,0.527751866 49.0111381,0.307619529 48.0259764,0.153760565 C47.4974551,0.0738238108 46.9639291,0.0314804707 46.4294153,0.0270493716 C46.074624,0.0270493716 44.6554586,0.0270493716 44.3006673,0.0270493716 C43.6689694,0.0809999487 43.0470369,0.217313916 42.4506839,0.43252519 C41.5068323,0.739749158 40.6417927,1.25012252 39.91646,1.92771727 C39.1708547,2.65323137 38.5689872,3.51304212 38.1425033,4.46194113 C37.2695745,6.46427292 36.8706371,8.64108339 36.9767603,10.822843 C36.9825467,13.2989391 37.2802613,15.7657175 37.8637387,18.1720922 L38.0664766,18.7296215 Z M42.7294485,6.5400047 C42.8853868,6.19462015 43.1095038,5.88430432 43.3883467,5.62768411 C43.597155,5.42389409 43.8479835,5.26820742 44.1232716,5.17152382 C44.2912082,5.14537613 44.4621798,5.14537613 44.6301164,5.17152382 C44.9595655,5.17152382 46.0239395,5.17152382 46.2773619,5.17152382 L47.2910514,5.17152382 C48.0366927,5.28990308 48.7733438,5.45924815 49.4958262,5.67836859 C50.2814356,5.90644874 51.0417028,6.18521336 51.8526544,6.46397799 L52.232788,6.46397799 C52.9848363,6.75565272 53.7063455,7.1206515 54.3868783,7.55369425 C56.3437523,8.96797383 58.7506383,9.61702176 61.153256,9.37833543 C62.0981482,9.17762245 62.8467606,8.45719956 63.0835758,7.52070311 C63.320391,6.58420667 63.0042181,5.59452773 62.2683145,4.96878591 C62.7406599,4.93214112 63.2151344,4.93214112 63.6874798,4.96878591 C64.754342,4.91908519 65.749305,5.50611337 66.2217037,6.46397799 C66.7377595,7.80278752 66.9456416,9.24063838 66.8299174,10.6707896 C66.801924,12.7534598 66.546996,14.8268739 66.0696503,16.8542958 L65.9429391,17.3864828 C65.6075989,18.3628946 65.4950315,19.4019782 65.61349,20.4275515 C65.61349,20.9597385 65.8162279,21.4665833 65.9175968,21.973428 C66.037267,22.41517 66.1303555,22.8636869 66.1963615,23.3165667 C66.6098348,27.3441747 65.1416611,31.3372332 62.21763,34.1377026 L62.21763,31.2740296 C62.3112139,26.9033499 58.9737639,23.22103 54.6149584,22.8857486 L54.1587981,22.8857486 C49.8416724,23.1169584 46.4817485,26.7232767 46.5561265,31.0459495 L46.5561265,34.0109914 C43.7308837,31.2070623 42.3243996,27.2763584 42.7294485,23.3165667 C42.7894006,22.864573 42.8740008,22.416192 42.9828709,21.973428 C43.1194133,21.4641959 43.2293782,20.9482067 43.31232,20.4275515 C43.4325168,19.4019851 43.3199076,18.3625156 42.9828709,17.3864828 L42.9828709,16.8542958 C42.4808339,14.8313616 42.2255542,12.7550869 42.2226037,10.6707896 C42.0917001,9.27342227 42.2646018,7.86427384 42.7294485,6.5400047 L42.7294485,6.5400047 Z" id="Shape" fill="#A7958A" fill-rule="nonzero"></path>
                                </g>
                                <path d="M50.3657497,12.4450192 C50.3657497,13.1200056 50.911935,13.6661955 51.5869259,13.6661955 L55.9039671,13.6661955 L55.9039671,14.1766112 C55.9039671,14.8515975 56.4501615,15.3977874 57.1251433,15.3977874 C57.8001342,15.3977874 58.3463195,14.8515975 58.3463195,14.1766112 L58.3463195,12.2828336 L60.4547608,12.2828336 L60.4547608,19.138829 L58.3463195,19.138829 L58.3463195,18.9766388 C58.3463195,18.3016572 57.8001342,17.7554672 57.1251433,17.7554672 L52.8081021,17.7554672 L52.8081021,16.9314101 C52.8081021,16.2564238 52.2619077,15.7102339 51.5869259,15.7102339 C50.911935,15.7102339 50.3657497,16.2564238 50.3657497,16.9314101 L50.3657497,19.138829 L48.2573085,19.138829 L48.2573085,12.2828336 L50.3657497,12.2828336 L50.3657497,12.4450192 L50.3657497,12.4450192 Z" id="Shape" stroke="none" fill="#4F2C18" fill-rule="nonzero"></path>
                                <path d="M14.3657497,12.4450192 C14.3657497,13.1200056 14.911935,13.6661955 15.5869259,13.6661955 L19.9039671,13.6661955 L19.9039671,14.1766112 C19.9039671,14.8515975 20.4501615,15.3977874 21.1251433,15.3977874 C21.8001342,15.3977874 22.3463195,14.8515975 22.3463195,14.1766112 L22.3463195,12.2828336 L24.4547608,12.2828336 L24.4547608,19.138829 L22.3463195,19.138829 L22.3463195,18.9766388 C22.3463195,18.3016572 21.8001342,17.7554672 21.1251433,17.7554672 L16.8081021,17.7554672 L16.8081021,16.9314101 C16.8081021,16.2564238 16.2619077,15.7102339 15.5869259,15.7102339 C14.911935,15.7102339 14.3657497,16.2564238 14.3657497,16.9314101 L14.3657497,19.138829 L12.2573085,19.138829 L12.2573085,12.2828336 L14.3657497,12.2828336 L14.3657497,12.4450192 L14.3657497,12.4450192 Z" id="Shape" stroke="none" fill="#4F2C18" fill-rule="nonzero"></path>
                                <line x1="23.7591146" y1="15.5" x2="48" y2="15.5" id="Path-2" stroke="#4F2C18" stroke-width="2" fill="none" opacity="0.699999988" stroke-linecap="round"></line>
                            </g>
                        </g>
                    </g>
                </g>
            </g>
        </g>
    </g>
</svg>
